src/assets/svg/linkedin.svg

<svg width="24" height="24" viewBox="0 0 24 24">
  <path d="M 21.800781 0 L 2.199219 0 C 1 0 0 1 0 2.199219 L 0 21.800781 C 0 23 1 24 2.199219 24 L 21.800781 24 C 23 24 24 23 24 21.800781 L 24 2.199219 C 24 1 23 0 21.800781 0 Z M 7 20 L 3 20 L 3 9 L 7 9 Z M 5 7.699219 C 3.800781 7.699219 3 6.898438 3 5.898438 C 3 4.800781 3.800781 4 5 4 C 6.199219 4 7 4.800781 7 5.800781 C 7 6.898438 6.199219 7.699219 5 7.699219 Z M 21 20 L 17 20 L 17 14 C 17 12.398438 15.898438 12 15.601563 12 C 15.300781 12 14 12.199219 14 14 C 14 14.199219 14 20 14 20 L 10 20 L 10 9 L 14 9 L 14 10.601563 C 14.601563 9.699219 15.601563 9 17.5 9 C 19.398438 9 21 10.5 21 14 Z" fill="currentColor" />
</svg>

<svg width="24" height="24" viewBox="0 0 24 24" fill="currentColor" aria-hidden="true">
	<path d="M21.8 0H2.2C1 0 0 1 0 2.2v19.6C0 23 1 24 2.2 24h19.6c1.2 0 2.2-1 2.2-2.2V2.2C24 1 23 0 21.8 0zM7 20H3V9h4v11zM5 7.7c-1.2 0-2-.8-2-1.8C3 4.8 3.8 4 5 4s2 .8 2 1.8c0 1.1-.8 1.9-2 1.9zM21 20h-4v-6c0-1.6-1.1-2-1.4-2-.3 0-1.6.2-1.6 2v6h-4V9h4v1.6c.6-.9 1.6-1.6 3.5-1.6s3.5 1.5 3.5 5v6z"/>
</svg>
